tools/download-figma-icons/icons/solid/family.svg

<svg width="25" height="24" viewBox="0 0 25 24" fill="none" xmlns="http://www.w3.org/2000/svg">
<path fill-rule="evenodd" clip-rule="evenodd" d="M11.2123 17.145L9.16482 16.0275H13.2522L11.2123 17.145ZM11.9998 8.25019C12.4497 8.25019 12.8097 8.60943 12.8097 9.05267C12.8097 9.50266 12.4497 9.86191 11.9998 9.86191C11.5573 9.86191 11.1973 9.50266 11.1973 9.05267C11.1973 8.60943 11.5573 8.25019 11.9998 8.25019ZM16.1172 18.8325C17.1221 18.8325 17.9471 19.6575 17.9471 20.6692C17.9471 21.6742 17.1221 22.4999 16.1172 22.4999C15.1047 22.4999 14.2797 21.6742 14.2797 20.6692C14.2797 19.6575 15.1047 18.8325 16.1172 18.8325ZM6.30737 22.4999C5.2949 22.4999 4.47741 21.6742 4.47741 20.6692C4.47741 19.6575 5.2949 18.8325 6.30737 18.8325C7.3206 18.8325 8.13734 19.6575 8.13734 20.6692C8.13734 21.6742 7.3206 22.4999 6.30737 22.4999ZM23.797 6.13461L23.1145 5.42213C22.8745 5.16713 22.492 5.11538 22.1928 5.29463C20.6396 6.21036 20.2196 7.49284 20.1146 8.30282H14.0922C13.9797 7.99532 13.8072 7.72458 13.5822 7.50034C13.4847 7.40284 13.3805 7.31959 13.2747 7.24534C13.1247 7.13209 12.9597 7.04959 12.7872 6.9821V2.26469C12.7872 1.01222 11.7748 0.000488271 10.5298 0.000488271H9.28481C4.16992 0.000488271 0 4.16215 0 9.2778V12.3295C0 14.3702 1.66497 16.0277 3.70492 16.0277H6.02988L9.6448 18.0001L8.78232 18.4651C8.17483 17.7751 7.29735 17.3326 6.30737 17.3326C4.46991 17.3326 2.97744 18.8326 2.97744 20.6693C2.97744 22.5 4.46991 24 6.30737 24C8.14483 24 9.6373 22.5 9.6373 20.6693C9.6373 20.3543 9.58481 20.0626 9.50231 19.7776L11.2123 18.8476L12.9147 19.7776C12.8397 20.0626 12.7797 20.3543 12.7797 20.6693C12.7797 22.5 14.2797 24 16.1172 24C17.9546 24 19.4471 22.5 19.4471 20.6693C19.4471 18.8326 17.9546 17.3326 16.1172 17.3326C15.1272 17.3326 14.2422 17.7751 13.6347 18.4651L12.7797 18.0001L16.3872 16.0277H17.8946C19.9346 16.0277 21.5996 14.3702 21.5996 12.3295V8.98455C21.5996 8.96581 21.5977 8.94893 21.5958 8.93206L21.5958 8.93201C21.5939 8.91515 21.5921 8.89829 21.5921 8.87956C21.5846 8.86531 21.4496 7.79958 22.477 6.9221L22.7095 7.16959C22.9945 7.47034 23.4745 7.47709 23.7745 7.19209C24.0745 6.90785 24.082 6.43536 23.797 6.13461ZM6.30654 19.9289C5.89855 19.9289 5.56855 20.2589 5.56855 20.6661C5.56855 21.0734 5.89855 21.4041 6.30654 21.4041C6.71378 21.4041 7.04377 21.0734 7.04377 20.6661C7.04377 20.2589 6.71378 19.9289 6.30654 19.9289ZM16.8515 20.6667C16.8515 21.0739 16.5215 21.4039 16.1135 21.4039C15.7063 21.4039 15.3763 21.0739 15.3763 20.6667C15.3763 20.2595 15.7063 19.9287 16.1135 19.9287C16.5215 19.9287 16.8515 20.2595 16.8515 20.6667Z" fill="black"/>
</svg>

<svg width="25" height="24" viewBox="0 0 25 24" fill="none" xmlns="http://www.w3.org/2000/svg"><path fill-rule="evenodd" clip-rule="evenodd" d="m11.212 17.145-2.047-1.117h4.087l-2.04 1.117ZM12 8.25a.806.806 0 1 1 .008 1.612A.806.806 0 0 1 12 8.25Zm4.117 10.582c1.005 0 1.83.825 1.83 1.837 0 1.005-.825 1.83-1.83 1.83a1.84 1.84 0 0 1-1.837-1.83 1.84 1.84 0 0 1 1.837-1.837ZM6.307 22.5a1.833 1.833 0 0 1 0-3.668 1.833 1.833 0 0 1 0 3.668Zm17.49-16.365-.683-.713a.74.74 0 0 0-.921-.127c-1.553.915-1.973 2.198-2.078 3.008h-6.023a2.185 2.185 0 0 0-.817-1.058 2.018 2.018 0 0 0-.488-.263V2.265A2.26 2.26 0 0 0 10.53 0H9.285C4.17 0 0 4.162 0 9.278v3.051a3.707 3.707 0 0 0 3.705 3.699H6.03L9.645 18l-.863.465a3.286 3.286 0 0 0-2.475-1.132c-1.837 0-3.33 1.5-3.33 3.336A3.337 3.337 0 0 0 6.307 24c1.838 0 3.33-1.5 3.33-3.33 0-.316-.052-.607-.135-.892l1.71-.93 1.703.93a3.461 3.461 0 0 0-.135.891c0 1.831 1.5 3.331 3.337 3.331 1.838 0 3.33-1.5 3.33-3.33a3.338 3.338 0 0 0-3.33-3.337 3.3 3.3 0 0 0-2.482 1.132L12.78 18l3.607-1.972h1.508A3.707 3.707 0 0 0 21.6 12.33V8.984a.455.455 0 0 0-.004-.053.455.455 0 0 1-.004-.052c-.007-.015-.142-1.08.885-1.958l.232.248c.285.3.765.307 1.066.022a.747.747 0 0 0 .022-1.057ZM6.307 19.929a.737.737 0 1 0-.002 1.474.737.737 0 0 0 .002-1.474Zm10.545.738a.737.737 0 1 1-1.475 0 .737.737 0 0 1 1.475 0Z" fill="currentColor"/></svg>
